X:19001
T:Sailor's Hornpipe, The
T:College Hornpipe
R:Hornpipe
C:Trad. Shanty
O:Britain
M:4/4
L:1/8
Q:1/4=140
K:G
gf|"G"g2 G2 G2 dc|Bdgf gbag|"A7"a2 A2 A2 AG|"D"FA d2 d2 ef|
"C"gfed "G"edcB|"C"cBAG "D"GFED|"C"EGFA "D"GBAc|"G"B2 "C"G2 "G"G2:|
|:dc|"G"Bdgd Bdgd|"C"e2 c2 c2 ed|"A7"^ceae ^ceae|"D"f2 d2 d2 B2|
"C"cBcd "Am"edcB|"C"cBAG "D"GFED|"C"EGFA "D"GBAc|"G"B2 "C"G2 "G"G2:|

